X: 750
T: Ertong fangshao
L: 1/8
M: 2/4
K: F
f f/ d/ c f [I:setbarnb 1]| 
A GF2 | 
F> G A d | 
c4 | 
f f/ d/ c f/ f/ | 
A GF2 | 
F> G A d | 
cG2A/ G/ | 
F4 |]

@@@ Tune index: 9624
